X: 3
T: The Plough And The Stars
R: reel
M: 4/4
L: 1/8
K: Gmaj
GEDE GABd|gabg aged|Bd~d2 ed~d2 |gedB AcBA|
GEDE GABd|g2 bg a2 ge|Bd~d2 gedB| AcBA G3 A:|
|:g3b a2ba|gabg aged|Bd~d2 ed~d2|gedB AcBA|
GEDE GABd|g2 bg a2 ge|Bd~d2 gedB| AcBA G3 A:|


Tune 1768	Setting 15214

